proprietary/assets/icons/mensen-aan-het-werk/douane.svg

<svg height="64" viewBox="0 0 64 64" width="64" xmlns="http://www.w3.org/2000/svg"><path d="m0 0h64v64h-64z" fill="none"/><path d="m47 41h4v2c-1.3315 0-2.6685 0-4 0zm15 8c0 1.1304 0 6.7827-.565 10.174-.1949 1.1728-1.0873 2.0651-2.2607 2.2607-3.3914.5653-9.0442.5653-10.1742.5653-1.1301 0-6.7828 0-10.1743-.5653-1.1734-.1956-2.0657-1.0879-2.2607-2.2607-.5651-3.3913-.5651-9.0436-.5651-10.174 0-1.1303 0-6.7827.5651-10.174.195-1.1729 1.0873-2.0652 2.2607-2.2607 3.3914-.5653 9.0441-.5653 10.1743-.5653 1.1301 0 6.7828 0 10.1742.5654 1.1735.1955 2.0658 1.0878 2.2607 2.2607.565 3.3912.565 6.7809.565 10.1739zm-19-6c-.8986 0-2.0038 0-2.925 0-.5513 0-1.035.447-1.0729.9988-.2694 3.9963-.2694 8.0062 0 12.0024.0378.5518.5216.9988 1.0729.9988h2.925zm10-2.5c0-.8271-.6729-1.5-1.5-1.5h-5c-.8271 0-1.5.6729-1.5 1.5v16.5h8zm5.998 3.4988c-.0379-.5518-.5217-.9988-1.073-.9988-.9211 0-2.0264 0-2.925 0v14h2.925c.5513 0 1.0351-.447 1.073-.9988.2694-3.9963.2694-8.0061 0-12.0024zm-43.5948 16.0012h-14.4032s1.5137-11.7656 4.3872-14.8896c.7834-.8521 2.0981-1.6686 3.592-2.4086.425-.8922.6433-1.6479 1.5764-1.9484l6.9996-2.2539c.0769-.5973.1518-1.1744.2191-1.687-2.0975-2.3478-3.3286-4.7501-3.7105-7.2619-1.324-1.2198-2.0614-3.1637-2.0614-5.5497 0-.7301.0045-2.6237 1.1634-3.9557-.0579-.7378-.1664-3.3444-.2108-4.767-1.7862-1.3787-2.9551-2.8871-2.9551-4.2782 0-5.3253 7.1635-8 16-8s16 2.6747 16 8c0 1.4807-1.1752 3.0956-3.0291 4.5446.0455 1.3736-.0587 2.8662-.2001 4.4198 1.228 1.3341 1.2268 3.2919 1.2268 4.0366 0 2.39-.7398 4.3362-2.0679 5.5557-.3149 1.9936-1.1885 3.9462-2.5873 5.8466-.0009.0013-.002.0016-.0029.0029-.7068.9719-2.792 3.232-3.6381 3.7029-.7992.4534-2.6833 1.2753-5.0443.6505-1.9295-.5107-2.9709-1.6546-3.5848-2.5851.8016.3484 1.8643.6341 2.9271.6349 1.4689.0011 2.938-.4411 3.7188-1.1055 2.8068-2.3887 5.3403-5.1819 5.3403-8.8846 1.6179-.5039 2.0416-2.5454 2.0416-3.8183 0-1.2725-.3217-1.961-.7738-2.1743-.3921-.1844-.7725-.0475-1.013.0886-.1414.6527-.2483 1.1383-.2898 1.3098-.206.8511-1.0234.7729-1.0234.7729v-3.6053c-1.8239.9741-4.7234 1.6073-8.0001 1.6073-3.2766 0-6.176-.6332-7.9999-1.6072v3.6052s-.8174.0782-1.0234-.7729c-.0414-.1715-.1484-.6571-.2898-1.3098-.2405-.1362-.6208-.2731-1.013-.0886-.4521.2133-.7738.9018-.7738 2.1743 0 1.2729.4236 3.3144 2.0414 3.8183 0 3.1945 1.8276 5.8611 4.1043 8.061-.2448 1.2226-.3342 1.7888-.5748 3.6736-.2827 2.2153 2.451 4.4461 5.529 4.4461.758 0 1.5106-.0423 2.2181-.1454zm.5968-45.15c0 .3459.1213.6798.3278 1 1.1118-1.7243 5.0143-2.83 9.6722-2.83s8.5605 1.1057 9.6722 2.83c.2065-.3202.3278-.6541.3278-1 0-2.2091-4.4772-4-10-4s-10 1.7909-10 4zm17 34.15c0-.5508.0048-1.1467.0125-1.7574l-10.1258 12.7574h10.8019c-.5931-2.5951-.6886-8.3102-.6886-11z"/></svg>

<?xml version="1.0" encoding="utf-8"?>
<!-- Generator: Adobe Illustrator 18.1.1, SVG Export Plug-In . SVG Version: 6.00 Build 0)  -->
<svg version="1.2" baseProfile="tiny" xmlns="http://www.w3.org/2000/svg" xmlns:xlink="http://www.w3.org/1999/xlink" x="0px"
	 y="0px" width="64px" height="64px" viewBox="0 0 64 64" xml:space="preserve">
<g id="Box">
	<rect fill="none" width="64" height="64"/>
</g>
<g id="Icon">
	<path d="M47,41h4v2c-1.3315,0-2.6685,0-4,0V41z M62,49c0,1.1304,0,6.7827-0.565,10.174c-0.1949,1.1728-1.0873,2.0651-2.2607,2.2607
		C55.7829,62,50.1301,62,49.0001,62c-1.1301,0-6.7828,0-10.1743-0.5653c-1.1734-0.1956-2.0657-1.0879-2.2607-2.2607
		C36,55.7827,36,50.1304,36,49c0-1.1303,0-6.7827,0.5651-10.174c0.195-1.1729,1.0873-2.0652,2.2607-2.2607
		C42.2172,36,47.8699,36,49.0001,36c1.1301,0,6.7828,0,10.1742,0.5654c1.1735,0.1955,2.0658,1.0878,2.2607,2.2607
		C62,42.2173,62,45.607,62,49z M43,43c-0.8986,0-2.0038,0-2.925,0c-0.5513,0-1.035,0.447-1.0729,0.9988
		c-0.2694,3.9963-0.2694,8.0062,0,12.0024C39.0399,56.553,39.5237,57,40.075,57c0.926,0,2.0211,0,2.925,0V43z M53,40.5
		c0-0.8271-0.6729-1.5-1.5-1.5h-5c-0.8271,0-1.5,0.6729-1.5,1.5V57c2.6824,0,5.317,0,8,0V40.5z M58.998,43.9988
		C58.9601,43.447,58.4763,43,57.925,43c-0.9211,0-2.0264,0-2.925,0v14c0.9,0,2.0032,0,2.925,0c0.5513,0,1.0351-0.447,1.073-0.9988
		C59.2674,52.0049,59.2674,47.9951,58.998,43.9988z M15.4032,60H1c0,0,1.5137-11.7656,4.3872-14.8896
		c0.7834-0.8521,2.0981-1.6686,3.592-2.4086c0.425-0.8922,0.6433-1.6479,1.5764-1.9484l6.9996-2.2539
		c0.0769-0.5973,0.1518-1.1744,0.2191-1.687c-2.0975-2.3478-3.3286-4.7501-3.7105-7.2619c-1.324-1.2198-2.0614-3.1637-2.0614-5.5497
		c0-0.7301,0.0045-2.6237,1.1634-3.9557c-0.0579-0.7378-0.1664-3.3444-0.2108-4.767C11.1688,13.8995,9.9999,12.3911,9.9999,11
		c0-5.3253,7.1635-8,16-8s16,2.6747,16,8c0,1.4807-1.1752,3.0956-3.0291,4.5446c0.0455,1.3736-0.0587,2.8662-0.2001,4.4198
		c1.228,1.3341,1.2268,3.2919,1.2268,4.0366c0,2.39-0.7398,4.3362-2.0679,5.5557c-0.3149,1.9936-1.1885,3.9462-2.5873,5.8466
		c-0.0009,0.0013-0.002,0.0016-0.0029,0.0029c-0.7068,0.9719-2.792,3.232-3.6381,3.7029c-0.7992,0.4534-2.6833,1.2753-5.0443,0.6505
		c-1.9295-0.5107-2.9709-1.6546-3.5848-2.5851c0.8016,0.3484,1.8643,0.6341,2.9271,0.6349c1.4689,0.0011,2.938-0.4411,3.7188-1.1055
		c2.8068-2.3887,5.3403-5.1819,5.3403-8.8846C36.6763,27.3154,37.1,25.2739,37.1,24.001c0-1.2725-0.3217-1.961-0.7738-2.1743
		c-0.3921-0.1844-0.7725-0.0475-1.013,0.0886c-0.1414,0.6527-0.2483,1.1383-0.2898,1.3098C34.8174,24.0762,34,23.998,34,23.998
		v-3.6053C32.1761,21.3668,29.2766,22,25.9999,22c-3.2766,0-6.176-0.6332-7.9999-1.6072v3.6052c0,0-0.8174,0.0782-1.0234-0.7729
		c-0.0414-0.1715-0.1484-0.6571-0.2898-1.3098c-0.2405-0.1362-0.6208-0.2731-1.013-0.0886C15.2217,22.04,14.9,22.7285,14.9,24.001
		c0,1.2729,0.4236,3.3144,2.0414,3.8183c0,3.1945,1.8276,5.8611,4.1043,8.061c-0.2448,1.2226-0.3342,1.7888-0.5748,3.6736
		C20.1882,41.7692,22.9219,44,25.9999,44c0.758,0,1.5106-0.0423,2.2181-0.1454L15.4032,60z M16,14.85
		c0,0.3459,0.1213,0.6798,0.3278,1c1.1118-1.7243,5.0143-2.83,9.6722-2.83s8.5605,1.1057,9.6722,2.83
		C35.8787,15.5298,36,15.1959,36,14.85c0-2.2091-4.4772-4-10-4S16,12.6409,16,14.85z M33,49c0-0.5508,0.0048-1.1467,0.0125-1.7574
		L22.8867,60h10.8019C33.0955,57.4049,33,51.6898,33,49z"/>
</g>
</svg>
